images/home/grid.svg

<svg height="101pt" viewBox="0 0 576 101" width="576pt" xmlns="http://www.w3.org/2000/svg"><g fill="none" stroke="#000" stroke-linecap="square" stroke-miterlimit="3.25"><path d="m0 101.261719v-101.261719h576v101.261719zm0 0" stroke-width="2"/><path d="m85.105469 101.261719 175.390625-101.261719"/><path d="m0 17.375 30.097656-17.375"/><path d="m0 83.886719 145.296875-83.886719"/><path d="m27.503906 101.261719 175.390625-101.261719"/><path d="m142.703125 101.261719 175.394531-101.261719"/><path d="m200.304688 101.261719 175.390624-101.261719"/><path d="m315.503906 101.261719 175.390625-101.261719"/><path d="m373.105469 101.261719 175.390625-101.261719"/><path d="m576 50.632812-87.695312 50.628907"/><path d="m576 83.886719-30.097656 17.375"/><path d="m0 50.632812 87.695312-50.632812"/><path d="m257.902344 101.261719 175.394531-101.261719"/><path d="m576 17.375-145.296875 83.886719"/><path d="m260.496094 101.261719-175.390625-101.261719"/><path d="m0 83.886719 30.097656 17.375"/><path d="m0 17.375 145.296875 83.886719"/><path d="m202.894531 101.261719-175.390625-101.261719"/><path d="m318.097656 101.261719-175.394531-101.261719"/><path d="m375.695312 101.261719-175.390624-101.261719"/><path d="m490.894531 101.261719-175.390625-101.261719"/><path d="m548.496094 101.261719-175.390625-101.261719"/><path d="m576 50.632812-87.695312-50.632812"/><path d="m576 17.375-30.097656-17.375"/><path d="m0 50.632812 87.695312 50.628907"/><path d="m433.296875 101.261719-175.394531-101.261719"/><path d="m576 83.886719-145.296875-83.886719"/><path d="m259.199219 101.261719v-101.261719"/><path d="m28.800781 101.261719v-101.261719"/><path d="m57.601562 101.261719v-101.261719"/><path d="m115.199219 101.261719v-101.261719"/><path d="m144 101.261719v-101.261719"/><path d="m201.601562 101.261719v-101.261719"/><path d="m230.398438 101.261719v-101.261719"/><path d="m288 101.261719v-101.261719"/><path d="m316.800781 101.261719v-101.261719"/><path d="m374.398438 101.261719v-101.261719"/><path d="m403.199219 101.261719v-101.261719"/><path d="m460.800781 101.261719v-101.261719"/><path d="m489.601562 101.261719v-101.261719"/><path d="m547.199219 101.261719v-101.261719"/><path d="m576 101.261719v-101.261719"/><path d="m0 101.261719v-101.261719"/><path d="m86.398438 101.261719v-101.261719"/><path d="m172.800781 101.261719v-101.261719"/><path d="m345.601562 101.261719v-101.261719"/><path d="m432 101.261719v-101.261719"/><path d="m518.398438 101.261719v-101.261719"/></g></svg>

<?xml version="1.0" encoding="UTF-8"?>
<svg xmlns="http://www.w3.org/2000/svg" xmlns:xlink="http://www.w3.org/1999/xlink" width="576pt" height="101pt" viewBox="0 0 576 101" version="1.1">
<g id="surface157">
<path style="fill:none;stroke-width:2;stroke-linecap:square;stroke-linejoin:miter;stroke:rgb(0%,0%,0%);stroke-opacity:1;stroke-miterlimit:3.25;" d="M 0 101.261719 L 0 0 L 576 0 L 576 101.261719 Z M 0 101.261719 "/>
<path style="fill:none;stroke-width:1;stroke-linecap:square;stroke-linejoin:miter;stroke:rgb(0%,0%,0%);stroke-opacity:1;stroke-miterlimit:3.25;" d="M 85.105469 101.261719 L 260.496094 0 "/>
<path style="fill:none;stroke-width:1;stroke-linecap:square;stroke-linejoin:miter;stroke:rgb(0%,0%,0%);stroke-opacity:1;stroke-miterlimit:3.25;" d="M 0 17.375 L 30.097656 0 "/>
<path style="fill:none;stroke-width:1;stroke-linecap:square;stroke-linejoin:miter;stroke:rgb(0%,0%,0%);stroke-opacity:1;stroke-miterlimit:3.25;" d="M 0 83.886719 L 145.296875 0 "/>
<path style="fill:none;stroke-width:1;stroke-linecap:square;stroke-linejoin:miter;stroke:rgb(0%,0%,0%);stroke-opacity:1;stroke-miterlimit:3.25;" d="M 27.503906 101.261719 L 202.894531 0 "/>
<path style="fill:none;stroke-width:1;stroke-linecap:square;stroke-linejoin:miter;stroke:rgb(0%,0%,0%);stroke-opacity:1;stroke-miterlimit:3.25;" d="M 142.703125 101.261719 L 318.097656 0 "/>
<path style="fill:none;stroke-width:1;stroke-linecap:square;stroke-linejoin:miter;stroke:rgb(0%,0%,0%);stroke-opacity:1;stroke-miterlimit:3.25;" d="M 200.304688 101.261719 L 375.695312 0 "/>
<path style="fill:none;stroke-width:1;stroke-linecap:square;stroke-linejoin:miter;stroke:rgb(0%,0%,0%);stroke-opacity:1;stroke-miterlimit:3.25;" d="M 315.503906 101.261719 L 490.894531 0 "/>
<path style="fill:none;stroke-width:1;stroke-linecap:square;stroke-linejoin:miter;stroke:rgb(0%,0%,0%);stroke-opacity:1;stroke-miterlimit:3.25;" d="M 373.105469 101.261719 L 548.496094 0 "/>
<path style="fill:none;stroke-width:1;stroke-linecap:square;stroke-linejoin:miter;stroke:rgb(0%,0%,0%);stroke-opacity:1;stroke-miterlimit:3.25;" d="M 576 50.632812 L 488.304688 101.261719 "/>
<path style="fill:none;stroke-width:1;stroke-linecap:square;stroke-linejoin:miter;stroke:rgb(0%,0%,0%);stroke-opacity:1;stroke-miterlimit:3.25;" d="M 576 83.886719 L 545.902344 101.261719 "/>
<path style="fill:none;stroke-width:1;stroke-linecap:square;stroke-linejoin:miter;stroke:rgb(0%,0%,0%);stroke-opacity:1;stroke-miterlimit:3.25;" d="M 0 50.632812 L 87.695312 0 "/>
<path style="fill:none;stroke-width:1;stroke-linecap:square;stroke-linejoin:miter;stroke:rgb(0%,0%,0%);stroke-opacity:1;stroke-miterlimit:3.25;" d="M 257.902344 101.261719 L 433.296875 0 "/>
<path style="fill:none;stroke-width:1;stroke-linecap:square;stroke-linejoin:miter;stroke:rgb(0%,0%,0%);stroke-opacity:1;stroke-miterlimit:3.25;" d="M 576 17.375 L 430.703125 101.261719 "/>
<path style="fill:none;stroke-width:1;stroke-linecap:square;stroke-linejoin:miter;stroke:rgb(0%,0%,0%);stroke-opacity:1;stroke-miterlimit:3.25;" d="M 260.496094 101.261719 L 85.105469 0 "/>
<path style="fill:none;stroke-width:1;stroke-linecap:square;stroke-linejoin:miter;stroke:rgb(0%,0%,0%);stroke-opacity:1;stroke-miterlimit:3.25;" d="M 0 83.886719 L 30.097656 101.261719 "/>
<path style="fill:none;stroke-width:1;stroke-linecap:square;stroke-linejoin:miter;stroke:rgb(0%,0%,0%);stroke-opacity:1;stroke-miterlimit:3.25;" d="M 0 17.375 L 145.296875 101.261719 "/>
<path style="fill:none;stroke-width:1;stroke-linecap:square;stroke-linejoin:miter;stroke:rgb(0%,0%,0%);stroke-opacity:1;stroke-miterlimit:3.25;" d="M 202.894531 101.261719 L 27.503906 0 "/>
<path style="fill:none;stroke-width:1;stroke-linecap:square;stroke-linejoin:miter;stroke:rgb(0%,0%,0%);stroke-opacity:1;stroke-miterlimit:3.25;" d="M 318.097656 101.261719 L 142.703125 0 "/>
<path style="fill:none;stroke-width:1;stroke-linecap:square;stroke-linejoin:miter;stroke:rgb(0%,0%,0%);stroke-opacity:1;stroke-miterlimit:3.25;" d="M 375.695312 101.261719 L 200.304688 0 "/>
<path style="fill:none;stroke-width:1;stroke-linecap:square;stroke-linejoin:miter;stroke:rgb(0%,0%,0%);stroke-opacity:1;stroke-miterlimit:3.25;" d="M 490.894531 101.261719 L 315.503906 0 "/>
<path style="fill:none;stroke-width:1;stroke-linecap:square;stroke-linejoin:miter;stroke:rgb(0%,0%,0%);stroke-opacity:1;stroke-miterlimit:3.25;" d="M 548.496094 101.261719 L 373.105469 0 "/>
<path style="fill:none;stroke-width:1;stroke-linecap:square;stroke-linejoin:miter;stroke:rgb(0%,0%,0%);stroke-opacity:1;stroke-miterlimit:3.25;" d="M 576 50.632812 L 488.304688 0 "/>
<path style="fill:none;stroke-width:1;stroke-linecap:square;stroke-linejoin:miter;stroke:rgb(0%,0%,0%);stroke-opacity:1;stroke-miterlimit:3.25;" d="M 576 17.375 L 545.902344 0 "/>
<path style="fill:none;stroke-width:1;stroke-linecap:square;stroke-linejoin:miter;stroke:rgb(0%,0%,0%);stroke-opacity:1;stroke-miterlimit:3.25;" d="M 0 50.632812 L 87.695312 101.261719 "/>
<path style="fill:none;stroke-width:1;stroke-linecap:square;stroke-linejoin:miter;stroke:rgb(0%,0%,0%);stroke-opacity:1;stroke-miterlimit:3.25;" d="M 433.296875 101.261719 L 257.902344 0 "/>
<path style="fill:none;stroke-width:1;stroke-linecap:square;stroke-linejoin:miter;stroke:rgb(0%,0%,0%);stroke-opacity:1;stroke-miterlimit:3.25;" d="M 576 83.886719 L 430.703125 0 "/>
<path style="fill:none;stroke-width:1;stroke-linecap:square;stroke-linejoin:miter;stroke:rgb(0%,0%,0%);stroke-opacity:1;stroke-miterlimit:3.25;" d="M 259.199219 101.261719 L 259.199219 0 "/>
<path style="fill:none;stroke-width:1;stroke-linecap:square;stroke-linejoin:miter;stroke:rgb(0%,0%,0%);stroke-opacity:1;stroke-miterlimit:3.25;" d="M 28.800781 101.261719 L 28.800781 0 "/>
<path style="fill:none;stroke-width:1;stroke-linecap:square;stroke-linejoin:miter;stroke:rgb(0%,0%,0%);stroke-opacity:1;stroke-miterlimit:3.25;" d="M 57.601562 101.261719 L 57.601562 0 "/>
<path style="fill:none;stroke-width:1;stroke-linecap:square;stroke-linejoin:miter;stroke:rgb(0%,0%,0%);stroke-opacity:1;stroke-miterlimit:3.25;" d="M 115.199219 101.261719 L 115.199219 0 "/>
<path style="fill:none;stroke-width:1;stroke-linecap:square;stroke-linejoin:miter;stroke:rgb(0%,0%,0%);stroke-opacity:1;stroke-miterlimit:3.25;" d="M 144 101.261719 L 144 0 "/>
<path style="fill:none;stroke-width:1;stroke-linecap:square;stroke-linejoin:miter;stroke:rgb(0%,0%,0%);stroke-opacity:1;stroke-miterlimit:3.25;" d="M 201.601562 101.261719 L 201.601562 0 "/>
<path style="fill:none;stroke-width:1;stroke-linecap:square;stroke-linejoin:miter;stroke:rgb(0%,0%,0%);stroke-opacity:1;stroke-miterlimit:3.25;" d="M 230.398438 101.261719 L 230.398438 0 "/>
<path style="fill:none;stroke-width:1;stroke-linecap:square;stroke-linejoin:miter;stroke:rgb(0%,0%,0%);stroke-opacity:1;stroke-miterlimit:3.25;" d="M 288 101.261719 L 288 0 "/>
<path style="fill:none;stroke-width:1;stroke-linecap:square;stroke-linejoin:miter;stroke:rgb(0%,0%,0%);stroke-opacity:1;stroke-miterlimit:3.25;" d="M 316.800781 101.261719 L 316.800781 0 "/>
<path style="fill:none;stroke-width:1;stroke-linecap:square;stroke-linejoin:miter;stroke:rgb(0%,0%,0%);stroke-opacity:1;stroke-miterlimit:3.25;" d="M 374.398438 101.261719 L 374.398438 0 "/>
<path style="fill:none;stroke-width:1;stroke-linecap:square;stroke-linejoin:miter;stroke:rgb(0%,0%,0%);stroke-opacity:1;stroke-miterlimit:3.25;" d="M 403.199219 101.261719 L 403.199219 0 "/>
<path style="fill:none;stroke-width:1;stroke-linecap:square;stroke-linejoin:miter;stroke:rgb(0%,0%,0%);stroke-opacity:1;stroke-miterlimit:3.25;" d="M 460.800781 101.261719 L 460.800781 0 "/>
<path style="fill:none;stroke-width:1;stroke-linecap:square;stroke-linejoin:miter;stroke:rgb(0%,0%,0%);stroke-opacity:1;stroke-miterlimit:3.25;" d="M 489.601562 101.261719 L 489.601562 0 "/>
<path style="fill:none;stroke-width:1;stroke-linecap:square;stroke-linejoin:miter;stroke:rgb(0%,0%,0%);stroke-opacity:1;stroke-miterlimit:3.25;" d="M 547.199219 101.261719 L 547.199219 0 "/>
<path style="fill:none;stroke-width:1;stroke-linecap:square;stroke-linejoin:miter;stroke:rgb(0%,0%,0%);stroke-opacity:1;stroke-miterlimit:3.25;" d="M 576 101.261719 L 576 0 "/>
<path style="fill:none;stroke-width:1;stroke-linecap:square;stroke-linejoin:miter;stroke:rgb(0%,0%,0%);stroke-opacity:1;stroke-miterlimit:3.25;" d="M 0 101.261719 L 0 0 "/>
<path style="fill:none;stroke-width:1;stroke-linecap:square;stroke-linejoin:miter;stroke:rgb(0%,0%,0%);stroke-opacity:1;stroke-miterlimit:3.25;" d="M 86.398438 101.261719 L 86.398438 0 "/>
<path style="fill:none;stroke-width:1;stroke-linecap:square;stroke-linejoin:miter;stroke:rgb(0%,0%,0%);stroke-opacity:1;stroke-miterlimit:3.25;" d="M 172.800781 101.261719 L 172.800781 0 "/>
<path style="fill:none;stroke-width:1;stroke-linecap:square;stroke-linejoin:miter;stroke:rgb(0%,0%,0%);stroke-opacity:1;stroke-miterlimit:3.25;" d="M 345.601562 101.261719 L 345.601562 0 "/>
<path style="fill:none;stroke-width:1;stroke-linecap:square;stroke-linejoin:miter;stroke:rgb(0%,0%,0%);stroke-opacity:1;stroke-miterlimit:3.25;" d="M 432 101.261719 L 432 0 "/>
<path style="fill:none;stroke-width:1;stroke-linecap:square;stroke-linejoin:miter;stroke:rgb(0%,0%,0%);stroke-opacity:1;stroke-miterlimit:3.25;" d="M 518.398438 101.261719 L 518.398438 0 "/>
</g>
</svg>
